packages/foundations/assets/icons/functional/images/environment/cloud_32_filled.svg

<svg width="32" height="32" viewBox="0 0 32 32" fill="none" xmlns="http://www.w3.org/2000/svg">
<g clip-path="url(#clip0_2206_3090)">
<rect width="32" height="32" fill="white"/>
<path fill-rule="evenodd" clip-rule="evenodd" d="M19.5 6C17.1674 6 14.7752 7.24878 13.4384 9.08119L13.3022 9.25333C12.7219 9.08618 12.1166 9 11.5 9L11.2579 9.00445C8.36537 9.11088 5.92017 11.1169 5.20889 13.8617L5.14031 14.0758C3.20922 15.2611 2 17.2768 2 19.5C2 23.1102 5.1525 26 9 26L23.2474 25.9959C27.0009 25.8663 30 23.0177 30 19.5L29.9946 19.2421C29.9078 17.1869 28.7881 15.3336 27.0317 14.1849C27.0106 13.805 27 13.5766 27 13.5C27 9.35786 23.64 6 19.5 6Z" fill="#282D37"/>
</g>
<defs>
<clipPath id="clip0_2206_3090">
<rect width="32" height="32" fill="white"/>
</clipPath>
</defs>
</svg>

<svg xmlns="http://www.w3.org/2000/svg" width="32" height="32" fill="none"><g clip-path="url(#a)"><path fill="#fff" d="M0 0h32v32H0z"/><path fill="#282D37" fill-rule="evenodd" d="M19.5 6c-2.333 0-4.725 1.249-6.062 3.081l-.136.172A6.5 6.5 0 0 0 11.5 9l-.242.004a6.5 6.5 0 0 0-6.05 4.858l-.068.214C3.21 15.26 2 17.276 2 19.5 2 23.11 5.153 26 9 26l14.247-.004C27.001 25.866 30 23.018 30 19.5l-.005-.258c-.087-2.055-1.207-3.908-2.963-5.057Q27 13.615 27 13.5C27 9.358 23.64 6 19.5 6" clip-rule="evenodd"/></g><defs><clipPath id="a"><path fill="#fff" d="M0 0h32v32H0z"/></clipPath></defs></svg>
